X:608
T: Die heiligen zwlf Zahlen (304b), S. 630
N: T0495
O: Luxemburg
S: Singendes Volk, Esch-Alzette 1937 posth.]
N: Diekirch, fff Elise Laschette, 1934
R: geistliches Lied]
M: 2/4
L: 1/16
K: G
 | B2B2B2A2 | B2c2d4 |
B2B2B2A2 | B2c2d4 |
e2d2c2A2 | A4G4 |
B2B2B2A2 | B2c2d4 |
B2B2B2A2 | B2c2d2d2 |
e2d2c2A2 | A4G4

@@@ Tune index: 8662
